X: 1
T:The Children  "CYMRU"
M:C
L:1/8
Q:80
C:P/M A.Stewart
S:Seconds
K:HP
f2|
{g}A2{GdGe}Aa{fg}f2{gef}ed|
{g}B/2d3/2{e}G{d}B{A}A2-A{d}B|
{g}A2{GdGe}Aa{f}g3/2f/2{gef}ed|  !
{g}f/2a3/2{f}gf{gef}e2-ed| |
{g}c2{GdGe}cf{Gdc}d2{gcd}cB|
{g}G/2B3/2{g}BG{g}c2-cd|  !
{gef}e3/2d/2{gcd}cB{g}A{d}c{g}A/2{d}c3/2|
{g}d/2f3/2{gef}ec{gBd}B2-BA|] |]
{g}f/2a3/2{fg}fA{g}A3/2g/2{ef}dA|  !
{g}B/2d3/2{e}G{d}B{A}A2-Ad|
{g}B/2{d}G3/2{g}B/2d3/2{gf}gf/2{gef}ed|
{g}f/2a3/2{f}gf{gef}e2-ec| |  !
{g}d/2f3/2{g}dc{g}c3/2e/2{gcd}cA|
{g}G/2B3/2{g}BG{g}c2-cd|
{gef}e3/2d/2{gcd}cB{g}A{d}c{g}A/2{d}c3/2|  !
{g}d/2f3/2{gef}ec{gBd}B2-BA|] [|
{g}f3/2e/2{Gdc}df{g}A2{GAG}Ad|
{g}B/2d3/2{e}G{d}B{A}A2-A{GAG}A|  !
{g}f3/2g/2ag{a}f/2a3/2Ad|
{g}f/2a3/2{f}gf{gef}e2-ec| |
{g}d3/2c/2{gBd}Bd{g}c2{GdGe}cB|  !
{g}G/2B3/2{g}BG{g}c2-cd|
{gef}e3/2d/2{gcd}cB{g}A{d}c{g}A/2{d}c3/2|
{g}d/2f3/2{gef}ec{gBd}B2-BA|] [|  !
{ag}a2-aA{gf}g3/2a/2{f}gA|
{g}B/2d3/2{e}G{d}B{A}A2-Af|
{gf}g2{a}e2{g}c3/2d/2{gef}eA|  !
{g}f/2a3/2{f}gf{gef}e2-ec| |
f2-fc{g}e3/2f/2{g}ec|
{g}G/2B3/2{g}BG{g}c2-cd|  !
{gef}e3/2d/2{gcd}cB{g}A{d}c{g}A/2{d}c3/2|
{g}d/2f3/2{gef}ec{gBd}B2-B|]
